src/assets/icons/cardMaps.svg

<svg width="50" height="50" viewBox="0 0 50 50" fill="none" xmlns="http://www.w3.org/2000/svg">
<path d="M28.8499 49.9514H11.6959C5.24678 49.9514 0 44.7046 0 38.2555V11.7447C0 5.29561 5.24678 0.0488281 11.6959 0.0488281H38.2066C44.6558 0.0488281 49.9025 5.29561 49.9025 11.7447V21.5888C49.7996 24.1751 46.1059 24.1732 46.0039 21.5888V11.7447C46.0039 7.44532 42.506 3.94746 38.2066 3.94746H11.6959C7.39649 3.94746 3.89864 7.44532 3.89864 11.7447V38.2555C3.89864 42.5549 7.39649 46.0527 11.6959 46.0527H28.8499C31.4363 46.1556 31.4343 49.8493 28.8499 49.9514ZM26.4319 17.212L32.47 11.1738C33.2313 10.4125 33.2312 9.17826 32.4699 8.41705C31.7088 7.65575 30.4744 7.65575 29.7132 8.41705L23.675 14.4553C23.3058 14.8245 22.8141 15.0241 22.2929 15.0262C21.7709 15.0252 21.2808 14.8206 20.9131 14.45L14.9314 8.42241C14.173 7.65818 12.9387 7.65351 12.1747 8.41189C11.4105 9.17027 11.4058 10.4045 12.1641 11.1686L18.1458 17.1962C19.249 18.3079 20.7192 18.9218 22.2855 18.9249H22.2971C23.8589 18.9248 25.327 18.3168 26.4319 17.212ZM11.2321 32.4116L15.4191 28.1654C17.6594 25.8934 17.6529 22.203 15.4047 19.9389L11.2272 15.7319C10.4686 14.968 9.2345 14.9636 8.47047 15.7221C7.70653 16.4807 7.70224 17.7149 8.46072 18.4788L12.6382 22.6859C13.3876 23.4405 13.3898 24.6708 12.643 25.4281L8.45595 29.6743C7.7001 30.4408 7.70867 31.675 8.47534 32.431C8.85507 32.8055 9.34961 32.9923 9.84396 32.9923C10.3475 32.9923 10.8507 32.7984 11.2321 32.4116ZM43.6426 47.9757C47.8611 42.6208 50 38.5358 50 35.8344C50 30.0753 45.3216 25.39 39.5712 25.39C33.8207 25.39 29.1423 30.0753 29.1423 35.8344C29.1423 38.5359 31.2812 42.6208 35.4997 47.9758C36.4888 49.2314 37.9728 49.9515 39.5712 49.9515C41.1695 49.9515 42.6535 49.2313 43.6426 47.9757ZM42.1113 46.7695H42.1123H42.1113ZM46.1014 35.8344C46.1014 37.1493 44.6509 40.3956 40.5801 45.5633C40.0484 46.221 39.0948 46.2219 38.5623 45.5633C34.4914 40.3956 33.0409 37.1493 33.0409 35.8344C33.0409 32.225 35.9704 29.2886 39.5712 29.2886C43.1719 29.2886 46.1014 32.225 46.1014 35.8344ZM11.7934 42.1541C10.0818 42.1644 9.18597 40.048 10.415 38.8264L38.7776 10.4638C39.5389 9.70253 40.7732 9.70253 41.5344 10.4638C42.2956 11.2251 42.2956 12.4594 41.5344 13.2206L13.1718 41.5831C12.7911 41.9637 12.2923 42.1541 11.7934 42.1541ZM37.1345 35.6239C37.1345 36.9696 38.2254 38.0605 39.5712 38.0605C42.8033 37.9322 42.8024 33.3151 39.5712 33.1872C38.2254 33.1872 37.1345 34.2782 37.1345 35.6239Z" fill="#0061DF"/>
</svg>

<svg xmlns="http://www.w3.org/2000/svg" width="50" height="50" fill="none"><path fill="#0061DF" d="M28.85 49.951H11.696C5.246 49.951 0 44.705 0 38.255v-26.51C0 5.295 5.247.049 11.696.049h26.51c6.45 0 11.697 5.247 11.697 11.696v9.844c-.103 2.586-3.797 2.584-3.9 0v-9.844c0-4.3-3.497-7.798-7.796-7.798H11.696c-4.3 0-7.797 3.498-7.797 7.798v26.51c0 4.3 3.497 7.798 7.797 7.798H28.85c2.586.103 2.584 3.796 0 3.898Zm-2.418-32.739 6.038-6.038a1.95 1.95 0 1 0-2.757-2.757l-6.038 6.038a1.95 1.95 0 0 1-2.762-.005l-5.982-6.028a1.95 1.95 0 1 0-2.767 2.747l5.982 6.027a5.809 5.809 0 0 0 4.14 1.729h.011a5.81 5.81 0 0 0 4.135-1.713Zm-15.2 15.2 4.187-4.247c2.24-2.272 2.234-5.962-.014-8.226l-4.178-4.207a1.95 1.95 0 0 0-2.766 2.747l4.177 4.207c.75.755.752 1.985.005 2.742l-4.187 4.246a1.95 1.95 0 1 0 2.776 2.738Zm32.41 15.564C47.863 42.62 50 38.536 50 35.834c0-5.759-4.678-10.444-10.429-10.444-5.75 0-10.429 4.685-10.429 10.444 0 2.702 2.14 6.787 6.358 12.142a5.153 5.153 0 0 0 4.071 1.976c1.599 0 3.083-.72 4.072-1.976Zm-1.53-1.206Zm3.99-10.936c0 1.315-1.451 4.562-5.522 9.73a1.278 1.278 0 0 1-2.018 0c-4.07-5.168-5.521-8.415-5.521-9.73 0-3.609 2.93-6.545 6.53-6.545s6.53 2.936 6.53 6.545Zm-34.309 6.32c-1.711.01-2.607-2.106-1.378-3.328l28.363-28.362a1.95 1.95 0 1 1 2.756 2.757L13.172 41.583c-.38.38-.88.571-1.379.571Zm25.342-6.53a2.437 2.437 0 0 0 2.436 2.436c3.232-.128 3.231-4.745 0-4.873a2.437 2.437 0 0 0-2.436 2.437Z"/></svg>
